images/icons/2-drops.svg

<?xml version="1.0" encoding="UTF-8"?>
<svg width="16px" height="15px" viewBox="0 0 16 15" version="1.1" xmlns="http://www.w3.org/2000/svg" xmlns:xlink="http://www.w3.org/1999/xlink">
    <title>Icon/Big/Regularly</title>
    <g id="desktop" stroke="none" stroke-width="1" fill="none" fill-rule="evenodd">
        <g id="d.-results" transform="translate(-903.000000, -1529.000000)" fill="#6E6E6E">
            <g id="ponytail-palm" transform="translate(733.000000, 1319.000000)">
                <g id="Icon/Big/TwoDrops" transform="translate(170.000000, 210.000000)">
                    <path d="M5.98653659,0.0529134223 C6.22009756,0.272449931 11.7073171,5.46584814 11.7073171,8.6711994 C11.7073171,11.9311392 9.08136585,14.5833136 5.85365854,14.5833136 C2.62595122,14.5833136 3.93334561e-14,11.9311392 3.93334561e-14,8.6711994 C3.93334561e-14,5.46584814 5.48721951,0.272449931 5.72078049,0.0529134223 C5.79570732,-0.0176378074 5.91160976,-0.0176378074 5.98653659,0.0529134223 Z M10.2792195,0.0529331294 C10.5127805,0.272469638 16,5.46586784 16,8.67121911 C16,11.9311589 13.3740488,14.5833333 10.1463415,14.5833333 C9.96663415,14.5833333 9.78419512,14.5748593 9.6044878,14.5583054 C9.49717073,14.5482548 9.41814634,14.4524785 9.42809756,14.3440898 C9.43785366,14.235701 9.53209756,14.1558875 9.64019512,14.165741 C9.808,14.1813096 9.97834146,14.1891924 10.1463415,14.1891924 C13.1588293,14.1891924 15.6097561,11.7137902 15.6097561,8.67121911 C15.6097561,5.90178773 10.9949268,1.29309762 10.1461463,0.469145971 C9.92058537,0.687500056 9.42868293,1.17288463 8.83317073,1.81513731 C8.75921951,1.89435964 8.63570732,1.89849812 8.55726829,1.82420255 C8.47863415,1.74990698 8.47453659,1.62516137 8.54829268,1.54574197 C9.376,0.653209794 10.0072195,0.0588452436 10.0134634,0.0529331294 C10.0883902,-0.0176181004 10.2042927,-0.0176181004 10.2792195,0.0529331294 Z M5.85365854,0.469126264 C5.0044878,1.29366913 0.390243902,5.9019651 0.390243902,8.6711994 C0.390243902,11.7139675 2.84117073,14.1891727 5.85365854,14.1891727 C8.86614634,14.1891727 11.3170732,11.7139675 11.3170732,8.6711994 C11.3170732,5.9019651 6.70282927,1.29366913 5.85365854,0.469126264 Z" id="Combined-Shape"></path>
                </g>
            </g>
        </g>
    </g>
</svg>

<svg width="16" height="15" xmlns="http://www.w3.org/2000/svg"><path d="M5.987.053c.233.22 5.72 5.413 5.72 8.618 0 3.26-2.626 5.912-5.853 5.912C2.626 14.583 0 11.931 0 8.671 0 5.466 5.487.272 5.72.053c.076-.07.192-.07.267 0zm4.292 0C10.513.273 16 5.466 16 8.67c0 3.26-2.626 5.912-5.854 5.912-.18 0-.362-.008-.542-.025a.196.196 0 01-.176-.214.195.195 0 01.212-.178c.168.015.338.023.506.023 3.013 0 5.464-2.475 5.464-5.518 0-2.77-4.615-7.378-5.464-8.202-.225.219-.717.704-1.313 1.346a.194.194 0 01-.276.01.198.198 0 01-.009-.28C9.376.654 10.008.06 10.013.054c.075-.07.191-.07.266 0zM5.854.469C5.004 1.294.39 5.902.39 8.671c0 3.043 2.451 5.518 5.464 5.518 3.012 0 5.463-2.475 5.463-5.518 0-2.769-4.614-7.377-5.463-8.202z" fill="#6E6E6E" fill-rule="evenodd"/></svg>
